web/workspace/public/assets/mark.svg

<svg height="167" viewBox="0 0 142 167" width="142" xmlns="http://www.w3.org/2000/svg"><g fill="#f44b00" fill-rule="evenodd"><path d="m141.944705 16.9505095c0-9.07623388-7.36019-16.43642405-16.435211-16.43642405h-64.2491602c-9.0762338 0-16.436424 7.36019017-16.436424 16.43642405v50.1763894h-28.3880922c-9.07623381 0-16.43521122 7.3589775-16.43521122 16.436424 0 9.0750211 7.35897741 16.4352113 16.43521122 16.4352113h28.3880922v50.4274288c0 9.076234 7.3601902 16.435212 16.436424 16.435212s16.4352112-7.358978 16.4352112-16.435212v-117.0402423h47.813949c9.075021 0 16.435211-7.3601902 16.435211-16.4352112"/><path d="m124.510793 67.1268989h-16.435211c-9.0762339 0-16.4352113 7.3589775-16.4352113 16.436424 0 9.0750211 7.3589774 16.4339985 16.4352113 16.4339985h16.435211c9.076234 0 16.436424-7.3589774 16.436424-16.4339985 0-9.0774465-7.36019-16.436424-16.436424-16.436424"/></g></svg>

<?xml version="1.0" encoding="UTF-8"?>
<svg width="142px" height="167px" viewBox="0 0 142 167" version="1.1" xmlns="http://www.w3.org/2000/svg" xmlns:xlink="http://www.w3.org/1999/xlink">
    <!-- Generator: Sketch 52.4 (67378) - http://www.bohemiancoding.com/sketch -->
    <title>Group</title>
    <desc>Created with Sketch.</desc>
    <g id="Page-1" stroke="none" stroke-width="1" fill="none" fill-rule="evenodd">
        <g id="Group" fill="#F44B00">
            <path d="M141.944705,16.9505095 C141.944705,7.87427562 134.584515,0.514085452 125.509494,0.514085452 L61.2603338,0.514085452 C52.1841,0.514085452 44.8239098,7.87427562 44.8239098,16.9505095 L44.8239098,67.1268989 L16.4358176,67.1268989 C7.35958379,67.1268989 0.000606375858,74.4858764 0.000606375858,83.5633229 C0.000606375858,92.638344 7.35958379,99.9985342 16.4358176,99.9985342 L44.8239098,99.9985342 L44.8239098,150.425963 C44.8239098,159.502197 52.1841,166.861175 61.2603338,166.861175 C70.3365676,166.861175 77.695545,159.502197 77.695545,150.425963 L77.695545,33.3857207 L125.509494,33.3857207 C134.584515,33.3857207 141.944705,26.0255305 141.944705,16.9505095" id="Fill-3"></path>
            <path d="M124.510793,67.1268989 L108.075582,67.1268989 C98.9993481,67.1268989 91.6403707,74.4858764 91.6403707,83.5633229 C91.6403707,92.638344 98.9993481,99.9973214 108.075582,99.9973214 L124.510793,99.9973214 C133.587027,99.9973214 140.947217,92.638344 140.947217,83.5633229 C140.947217,74.4858764 133.587027,67.1268989 124.510793,67.1268989" id="Fill-1"></path>
        </g>
    </g>
</svg>
